public/mascots/dropout/fox-32x32.svg

<svg xmlns="http://www.w3.org/2000/svg" width="32" height="32" viewBox="0 0 32 32"><defs><linearGradient id="a" x1="0%" x2="100%" y1="0%" y2="100%"><stop offset="0%" style="stop-color:#f48c06"/><stop offset="100%" style="stop-color:#e85d04"/></linearGradient><linearGradient id="b" x1="0%" x2="0%" y1="0%" y2="100%"><stop offset="0%" style="stop-color:#6a040f"/><stop offset="100%" style="stop-color:#370617"/></linearGradient><linearGradient id="c" x1="0%" x2="100%" y1="0%" y2="100%"><stop offset="0%" style="stop-color:#ffd60a"/><stop offset="100%" style="stop-color:#ffc300"/></linearGradient></defs><path fill="url(#a)" d="M6 20q-2-4 0-8t6-2l-4 8q-1 2-2 2"/><path fill="none" stroke="#f48c06" stroke-width=".5" d="M6 12q-1-2 0-4t3 0"/><path fill="url(#b)" d="M10 18q0-4 4-5t8 1q2 2 2 6 0 6-4 8t-8 0q-2-2-2-6z"/><path stroke="#9d0208" stroke-width=".5" d="M14 16v8M18 16v8"/><rect width="2" height="2" x="15" y="18" fill="url(#c)" rx=".3"/><path fill="none" stroke="#9d0208" stroke-width=".8" d="m12 14 2 2h4l2-2"/><ellipse cx="16" cy="10" fill="url(#a)" rx="6" ry="5"/><path fill="url(#a)" d="m11 7-1-4 3 3Z"/><path fill="#370617" d="M11 5V4l1 1Z"/><path fill="url(#a)" d="m21 7 1-4-3 3Z"/><path fill="#370617" d="M21 5V4l-1 1Z"/><ellipse cx="16" cy="12" fill="#ffba08" rx="2.5" ry="1.5"/><circle cx="16" cy="11.5" r=".8" fill="#370617"/><ellipse cx="13.5" cy="9.5" fill="#fff" rx="1.2" ry="1.5"/><ellipse cx="13.7" cy="9.5" fill="#370617" rx=".6" ry=".9"/><ellipse cx="18.5" cy="9.5" fill="#fff" rx="1.2" ry="1.5"/><ellipse cx="18.3" cy="9.5" fill="#370617" rx=".6" ry=".9"/><path fill="none" stroke="#370617" stroke-width=".4" d="M12 7.5q1.5-.5 3 0M17 7.5q1.5-.5 3 0"/><path fill="url(#b)" d="M10 20q-2 2-1 4t3 0"/><path fill="url(#b)" d="M24 20q2 2 1 4t-3 0"/><circle cx="20" cy="19" r="1.5" fill="url(#c)"/><text x="20" y="19.5" fill="#370617" font-size="1.5" font-weight="bold" text-anchor="middle">F</text></svg>

<svg xmlns="http://www.w3.org/2000/svg" viewBox="0 0 32 32" width="32" height="32">
  <defs>
    <linearGradient id="foxOrange32" x1="0%" y1="0%" x2="100%" y2="100%">
      <stop offset="0%" style="stop-color:#F48C06"/>
      <stop offset="100%" style="stop-color:#E85D04"/>
    </linearGradient>
    <linearGradient id="jacketBurgundy32" x1="0%" y1="0%" x2="0%" y2="100%">
      <stop offset="0%" style="stop-color:#6A040F"/>
      <stop offset="100%" style="stop-color:#370617"/>
    </linearGradient>
    <linearGradient id="goldAccent32" x1="0%" y1="0%" x2="100%" y2="100%">
      <stop offset="0%" style="stop-color:#FFD60A"/>
      <stop offset="100%" style="stop-color:#FFC300"/>
    </linearGradient>
  </defs>
  
  <!-- Tail -->
  <path d="M6 20 Q4 16 6 12 Q8 8 12 10 Q10 14 8 18 Q7 20 6 20Z" fill="url(#foxOrange32)"/>
  <path d="M6 12 Q5 10 6 8 Q7 6 9 8" fill="none" stroke="#F48C06" stroke-width="0.5"/>
  
  <!-- Body/Jacket -->
  <path d="M10 18 Q10 14 14 13 Q18 12 22 14 Q24 16 24 20 Q24 26 20 28 Q16 30 12 28 Q10 26 10 22 Q10 20 10 18Z" fill="url(#jacketBurgundy32)"/>
  
  <!-- Jacket Details -->
  <path d="M14 16 L14 24" stroke="#9D0208" stroke-width="0.5"/>
  <path d="M18 16 L18 24" stroke="#9D0208" stroke-width="0.5"/>
  <rect x="15" y="18" width="2" height="2" fill="url(#goldAccent32)" rx="0.3"/>
  
  <!-- Jacket Collar -->
  <path d="M12 14 L14 16 L18 16 L20 14" fill="none" stroke="#9D0208" stroke-width="0.8"/>
  
  <!-- Head -->
  <ellipse cx="16" cy="10" rx="6" ry="5" fill="url(#foxOrange32)"/>
  
  <!-- Ears -->
  <path d="M11 7 L10 3 L13 6Z" fill="url(#foxOrange32)"/>
  <path d="M11 5 L11 4 L12 5Z" fill="#370617"/>
  <path d="M21 7 L22 3 L19 6Z" fill="url(#foxOrange32)"/>
  <path d="M21 5 L21 4 L20 5Z" fill="#370617"/>
  
  <!-- Snout -->
  <ellipse cx="16" cy="12" rx="2.5" ry="1.5" fill="#FFBA08"/>
  <circle cx="16" cy="11.5" r="0.8" fill="#370617"/>
  
  <!-- Eyes (clever expression) -->
  <ellipse cx="13.5" cy="9.5" rx="1.2" ry="1.5" fill="#FFF"/>
  <ellipse cx="13.7" cy="9.5" rx="0.6" ry="0.9" fill="#370617"/>
  <ellipse cx="18.5" cy="9.5" rx="1.2" ry="1.5" fill="#FFF"/>
  <ellipse cx="18.3" cy="9.5" rx="0.6" ry="0.9" fill="#370617"/>
  
  <!-- Eyebrows (confident) -->
  <path d="M12 7.5 Q13.5 7 15 7.5" stroke="#370617" stroke-width="0.4" fill="none"/>
  <path d="M17 7.5 Q18.5 7 20 7.5" stroke="#370617" stroke-width="0.4" fill="none"/>
  
  <!-- Arms -->
  <path d="M10 20 Q8 22 9 24 Q10 26 12 24" fill="url(#jacketBurgundy32)"/>
  <path d="M24 20 Q26 22 25 24 Q24 26 22 24" fill="url(#jacketBurgundy32)"/>
  
  <!-- Jacket Emblem -->
  <circle cx="20" cy="19" r="1.5" fill="url(#goldAccent32)"/>
  <text x="20" y="19.5" font-size="1.5" text-anchor="middle" fill="#370617" font-weight="bold">F</text>
</svg>
